storage/app/icons/phosphoricons/duotone/arrow-square-up-right-duotone.svg

<svg xmlns="http://www.w3.org/2000/svg" fill="currentColor" viewBox="0 0 256 256"><path d="M216 48v160a8 8 0 0 1-8 8H48a8 8 0 0 1-8-8V48a8 8 0 0 1 8-8h160a8 8 0 0 1 8 8" opacity=".2"/><path d="M208 32H48a16 16 0 0 0-16 16v160a16 16 0 0 0 16 16h160a16 16 0 0 0 16-16V48a16 16 0 0 0-16-16m0 176H48V48h160ZM90.34 165.66a8 8 0 0 1 0-11.32L140.69 104H112a8 8 0 0 1 0-16h48a8 8 0 0 1 8 8v48a8 8 0 0 1-16 0v-28.69l-50.34 50.35a8 8 0 0 1-11.32 0"/></svg>

<svg xmlns="http://www.w3.org/2000/svg" viewBox="0 0 256 256" fill="currentColor"><path d="M216,48V208a8,8,0,0,1-8,8H48a8,8,0,0,1-8-8V48a8,8,0,0,1,8-8H208A8,8,0,0,1,216,48Z" opacity="0.2"/><path d="M208,32H48A16,16,0,0,0,32,48V208a16,16,0,0,0,16,16H208a16,16,0,0,0,16-16V48A16,16,0,0,0,208,32Zm0,176H48V48H208ZM90.34,165.66a8,8,0,0,1,0-11.32L140.69,104H112a8,8,0,0,1,0-16h48a8,8,0,0,1,8,8v48a8,8,0,0,1-16,0V115.31l-50.34,50.35a8,8,0,0,1-11.32,0Z"/></svg>
